!!!OTL@@DE: Weine nur nicht!
!!!COM: Weber, Carl Maria von
!!!ODT: 1818
!!!OMD: Allegro
!!!LYR: Volkslied
!!!OCL: Erk, Ludwig
!!!GCO: Deutscher Liederschatz, Band 1
**kern	**kern	**kern
*staff3	*staff2	*staff1
*Ipiano	*Ipiano	*Ivox
=1-	=1-	=1-
*clefF4	*clefG2	*clefG2
*k[f#c#]	*k[f#c#]	*k[f#c#]
*D:	*D:	*D:
*M3/8	*M3/8	*M3/8
*MM120	*MM120	*MM120
4.DD/ 4.D/	8r	4a/
.	8F#/ 8A/ 8d/ 8f#/L	.
.	8F#/ 8A/ 8d/ 8f#/J	8f#/
=2	=2	=2
4.DD/ 4.D/	8r	4dd\
.	8F#/ 8A/ 8d/ 8f#/L	.
.	8F#/ 8A/ 8d/ 8f#/J	8a/
=3	=3	=3
4.DD/ 4.D/	8r	8a/
.	8G/ 8A/ 8c#/ 8e/L	16g/LL
.	.	16f#/JJ
.	8G/ 8A/ 8c#/ 8e/J	16g/LL
.	.	16e/JJ
=4	=4	=4
4.DD/ 4.D/	8r	4.a/
.	8F#/ 8A/ 8d/ 8f#/L	.
.	8F#/ 8A/ 8d/ 8f#/J	.
=5	=5	=5
4.AAA/ 4.AA/	8r	8a/
.	8G/ 8A/ 8c#/ 8e/L	8g/
.	8G/ 8A/ 8c#/ 8e/J	8e/
=6	=6	=6
4.AAA/ 4.AA/	8r	8d/
.	8F#/ 8A/ 8d/ 8f#/L	8f#/
.	8F#/ 8A/ 8d/ 8f#/J	16b/LL
.	.	16a/JJ
=7	=7	=7
4.AAA/ 4.AA/	8r	4a/
.	8G/ 8A/ 8c#/ 8e/L	.
.	8G/ 8A/ 8c#/ 8e/J	16g/LL
.	.	16e/JJ
=8	=8	=8
4.DD/ 4.D/	4.F#/ 4.A/ 4.d/	4d/
.	.	8r
=9	=9	=9
8GG/ 8G/L	8B/ 8d/ 8b/L	8b\
8GG/ 8G/	8B/ 8d/ 8b/	8b\
8FF#/ 8F#/J	8A/ 8d/ 8a/J	8a/
=10	=10	=10
8EE/ 8E/L	8A/ 8c#/ 8g/L	16g/LL
.	.	16e/JJ
8DD/ 8D/J	8A/ 8d/ 8f#/J	4f#/
8r	8r	.
=11	=11	=11
8GG/ 8G/L	8B/ 8d/ 8b/L	8b\
8GG/ 8G/	8B/ 8d/ 8b/	8b\
8FF#/ 8F#/J	8A/ 8d/ 8a/J	8a/
=12	=12	=12
8EE/ 8E/	8A/ 8c#/ 8g/	(16g/LL
.	.	16e/JJ
4DD/ 4D/	4A/ 4d/ 4f#/	4f#/)
=13	=13	=13
4.r	4.r	4r
.	.	16f#/
.	.	16g/
=14	=14	=14
4.DD/ 4.D/	8r	4a/
.	8A/ 8d/ 8f#/ 8a/L	.
.	8A/ 8d/ 8f#/ 8a/J	8f#/
=15	=15	=15
4.DD/ 4.D/	8r	4dd\
.	8A/ 8d/ 8f#/ 8a/L	.
.	8A/ 8d/ 8f#/ 8a/J	8a/
=16	=16	=16
4.AA/ 4.F#/	4.A/ 4.d/ 4.a/	4r
.	.	16f#/
.	.	16a/
=17	=17	=17
4.AA\ 4.G\	4.A/ 4.c#/ 4.e/ 4.a/	16a/
.	.	16g/
.	.	16g/LL
.	.	16f#/JJ
.	.	16g/
.	.	16e/
=18	=18	=18
4.D\ 4.F#\	8r	4a/
.	8A/ 8d/ 8a/L	.
.	8A/ 8d/ 8a/J	16f#/
.	.	16a/
=19	=19	=19
[4.D\ [4.F#\	[4.A/ [4.d/ [4.a/	4.dd^\
=20	=20	=20
4D\] 4F#\]	4A/] 4d/] 4a/]	8a/
.	.	8r
8r	8r	16f#/
.	.	16a/
=21	=21	=21
8AA\ 8G\L	8A/ 8c#/ 8e/L	16a/
.	.	16g/
8AA\ 8G\	8A/ 8c#/ 8e/	16g/LL
.	.	16f#/JJ
8AA\ 8G\J	8A/ 8c#/ 8e/J	16g/
.	.	16e/
=22	=22	=22
4.D\ 4.F#\	4.A/ 4.d/	4.d/
=23	=23	=23
8F#\ 8d\	8dd\ 8ff#\	4.r
*clefG2	*	*
4d^/ 4f#^/	4a^\ 4dd^\	.
=24	=24	=24
8A/ 8c#/ 8g/	8ee\	4.r
4A^/ 4c#^/ 4g^/	4a^/	.
=25	=25	=25
8A/ 8d/ 8f#/L	(16dd\LL	4.r
.	16a\	.
8A/ 8d/ 8f#/	16dd\	.
.	16ff#\	.
8A/ 8e/ 8g/J	16aa\	.
.	16cc#\JJ	.
=26	=26	=26
4d/ 4f#/	4dd\)	4.r
8r	8r	.
*clefF4	*	*
=27	=27	=27
4.DD/ 4.D/	8r	4a/
.	8F#/ 8A/ 8d/ 8f#/L	.
.	8F#/ 8A/ 8d/ 8f#/J	8f#/
=28	=28	=28
4.DD/ 4.D/	8r	4dd\
.	8F#/ 8A/ 8d/ 8f#/L	.
.	8F#/ 8A/ 8d/ 8f#/J	8a/
=29	=29	=29
4.DD/ 4.D/	8r	8a/
.	8G/ 8A/ 8c#/ 8e/L	16g/LL
.	.	16f#/JJ
.	8G/ 8A/ 8c#/ 8e/J	16g/LL
.	.	16e/JJ
=30	=30	=30
4.DD/ 4.D/	8r	4.a/
.	8F#/ 8A/ 8d/ 8f#/L	.
.	8F#/ 8A/ 8d/ 8f#/J	.
=31	=31	=31
4.AAA/ 4.AA/	8r	8a/
.	8G/ 8A/ 8c#/ 8e/L	8g/
.	8G/ 8A/ 8c#/ 8e/J	8e/
=32	=32	=32
4.AAA/ 4.AA/	8r	8d/
.	8F#/ 8A/ 8d/ 8f#/L	8f#/
.	8F#/ 8A/ 8d/ 8f#/J	16b/LL
.	.	16a/JJ
=33	=33	=33
4.AAA/ 4.AA/	8r	4a/
.	8G/ 8A/ 8c#/ 8e/L	.
.	8G/ 8A/ 8c#/ 8e/J	16g/LL
.	.	16e/JJ
=34	=34	=34
4.DD/ 4.D/	4.F#/ 4.A/ 4.d/	4d/
.	.	8r
=35	=35	=35
8GG/ 8G/L	8B/ 8d/ 8b/L	8b\
8GG/ 8G/	8B/ 8d/ 8b/	8b\
8FF#/ 8F#/J	8A/ 8d/ 8a/J	8a/
=36	=36	=36
8EE/ 8E/L	8A/ 8c#/ 8g/L	16g/LL
.	.	16e/JJ
8DD/ 8D/J	8A/ 8d/ 8f#/J	4f#/
8r	8r	.
=37	=37	=37
8GG/ 8G/L	8B/ 8d/ 8b/L	8b\
8GG/ 8G/	8B/ 8d/ 8b/	8b\
8FF#/ 8F#/J	8A/ 8d/ 8a/J	8a/
=38	=38	=38
8EE/ 8E/	8A/ 8c#/ 8g/	16g/LL
.	.	16e/JJ
4DD/ 4D/	4A/ 4d/ 4f#/	8f#/
.	.	16f#/
.	.	16a/
=39	=39	=39
4.EE/ 4.E/	4.d/ 4.g#/	4.g#/
=40	=40	=40
4.AAA/ 4.AA/	4.c#/ 4.a/	4.a/
=41	=41	=41
4.r	4.r	4.r
=42	=42	=42
4.r	4.r	4r
.	.	(24f#/
.	.	24f#/
.	.	24gn/)
=43	=43	=43
4.DD/ 4.D/	8r	4a/
.	8A/ 8d/ 8f#/ 8a/L	.
.	8A/ 8d/ 8f#/ 8a/J	16.f#/
.	.	32dd\
=44	=44	=44
4.DD/ 4.D/	8r	4dd\
.	8A/ 8d/ 8f#/ 8a/L	.
.	8A/ 8d/ 8f#/ 8a/J	8a/
=45	=45	=45
4.AA/ 4.F#/	4.A/ 4.d/ 4.a/	4r
.	.	(24f#/
.	.	24f#/
.	.	24a/)
=46	=46	=46
4.AA\ 4.G\	4.A/ 4.c#/ 4.e/ 4.a/	16a/
.	.	16g/
.	.	16g/
.	.	16f#/
.	.	16g/
.	.	16e/
=47	=47	=47
4D\ 4F#\	8r	4a/
.	8A/ 8d/ 8a/L	.
8r	8A/ 8d/ 8a/J	(24f#/
.	.	24f#/
.	.	24a/)
=48	=48	=48
[4.D\ [4.F#\	[4.A/ [4.d/ [4.a/	4.dd^\
=49	=49	=49
4D\] 4F#\]	4A/] 4d/] 4a/]	8a/
.	.	8r
8r	8r	(24f#/
.	.	24f#/
.	.	24a/)
=50	=50	=50
8AA\ 8G\L	8A/ 8c#/ 8e/L	16a/
.	.	16g/
8AA\ 8G\	8A/ 8c#/ 8e/	16g/
.	.	16f#/
8AA\ 8G\J	8A/ 8c#/ 8e/J	16g/
.	.	16e/
=51	=51	=51
4.D\ 4.F#\	4.A/ 4.d/	4.d/
=52	=52	=52
8F#\ 8d\	8dd\ 8ff#\	4.r
*clefG2	*	*
4d^/ 4f#^/	4a\ 4dd\	.
=53	=53	=53
8A/ 8c#/ 8g/	8ee\	4.r
4A^/ 4c#^/ 4g^/	4a^/	.
=54	=54	=54
8A/ 8d/ 8f#/L	(16dd\LL	4.r
.	16a\	.
8A/ 8d/ 8f#/	16dd\	.
.	16ff#\	.
8A/ 8e/ 8g/J	16aa\	.
.	16cc#\JJ	.
=55	=55	=55
4d/ 4f#/	4dd\)	4.r
8r	8r	.
*clefF4	*	*
=56	=56	=56
4.DD/ 4.D/	8r	4a/
.	8F#/ 8A/ 8d/ 8f#/L	.
.	8F#/ 8A/ 8d/ 8f#/J	8f#/
=57	=57	=57
4.DD/ 4.D/	8r	4dd\
.	8F#/ 8A/ 8d/ 8f#/L	.
.	8F#/ 8A/ 8d/ 8f#/J	8a/
=58	=58	=58
4.DD/ 4.D/	8r	8a/
.	8G/ 8A/ 8c#/ 8e/L	16g/LL
.	.	16f#/JJ
.	8G/ 8A/ 8c#/ 8e/J	16g/LL
.	.	16e/JJ
=59	=59	=59
4.DD/ 4.D/	8r	4a/
.	8F#/ 8A/ 8d/ 8f#/L	.
.	8F#/ 8A/ 8d/ 8f#/J	8r
=60	=60	=60
4.AAA/ 4.AA/	8r	8a/
.	8G/ 8A/ 8c#/ 8e/L	8g/
.	8G/ 8A/ 8c#/ 8e/J	8e/
=61	=61	=61
4.AAA/ 4.AA/	8r	8d/
.	8F#/ 8A/ 8d/ 8f#/L	8f#/
.	8F#/ 8A/ 8d/ 8f#/J	16b/LL
.	.	16a/JJ
=62	=62	=62
4.AAA/ 4.AA/	8r	4a/
.	8G/ 8A/ 8c#/ 8e/L	.
.	8G/ 8A/ 8c#/ 8e/J	16g/LL
.	.	16e/JJ
=63	=63	=63
4.DD/ 4.D/	4.F#/ 4.A/ 4.d/	4d/
.	.	8r
=64	=64	=64
8GG/ 8G/L	8B/ 8d/ 8b/L	8b\
8GG/ 8G/	8B/ 8d/ 8b/	8b\
8FF#/ 8F#/J	8A/ 8d/ 8a/J	8a/
=65	=65	=65
8EE/ 8E/L	8A/ 8c#/ 8g/L	16g/LL
.	.	16e/JJ
8DD/ 8D/J	8A/ 8d/ 8f#/J	4f#/
8r	8r	.
=66	=66	=66
8GG/ 8G/L	8B/ 8d/ 8b/L	8b\
8GG/ 8G/	8B/ 8d/ 8b/	8b\
8FF#/ 8F#/J	8A/ 8d/ 8a/J	8a/
=67	=67	=67
8EE/ 8E/	8A/ 8c#/ 8g/	16g/LL
.	.	16e/JJ
4DD/ 4D/	4A/ 4d/ 4f#/	8f#/
.	.	16f#/
.	.	16a/
=68	=68	=68
4.EE/ 4.E/	4.d/ 4.g#/	4.g#/
=69	=69	=69
4.AAA/ 4.AA/	4.c#/ 4.a/	4.a/
=70	=70	=70
4.r	4.r	4.r
=71	=71	=71
4.r	4.r	4r
.	.	16f#/
.	.	16gn/
=72	=72	=72
4.DD/ 4.D/	8r	4a/
.	8A/ 8d/ 8f#/ 8a/L	.
.	8A/ 8d/ 8f#/ 8a/J	16f#/
.	.	16f#/
=73	=73	=73
4.DD/ 4.D/	8r	4dd\
.	8A/ 8d/ 8f#/ 8a/L	.
.	8A/ 8d/ 8f#/ 8a/J	16a/
.	.	16a/
=74	=74	=74
4.AA/ 4.F#/	4.A/ 4.d/ 4.a/	4r
.	.	16f#/
.	.	16a/
=75	=75	=75
4.AA\ 4.G\	4.A/ 4.c#/ 4.e/ 4.a/	16a/LL
.	.	16g/JJ
.	.	32g/
.	.	32g/
.	.	16f#/
.	.	16g/
.	.	16e/
=76	=76	=76
4D\ 4F#\	8r	8a/
.	8A/ 8d/ 8a/L	8r
8r	8A/ 8d/ 8a/J	16f#/
.	.	16a/
=77	=77	=77
[4.D\ [4.F#\	[4.A/ [4.d/ [4.a/	4.dd^\
=78	=78	=78
4D\] 4F#\]	4A/] 4d/] 4a/]	16a/
.	.	16a/
.	.	8r
8r	8r	16f#/
.	.	16a/
=79	=79	=79
8AA\ 8G\L	8A/ 8c#/ 8e/L	16a/LL
.	.	16g/JJ
8AA\ 8G\	8A/ 8c#/ 8e/	32g/
.	.	32g/
.	.	16f#/
8AA\ 8G\J	8A/ 8c#/ 8e/J	16g/
.	.	16e/
=80	=80	=80
4.D\ 4.F#\	4.A/ 4.d/	4d/
.	.	8r
=81	=81	=81
8F#\ 8d\	8dd\ 8ff#\	4.r
*clefG2	*	*
4d^/ 4f#^/	4a\ 4dd\	.
=82	=82	=82
8A/ 8c#/ 8g/	8ee\	4.r
4A^/ 4c#^/ 4g^/	4a^/	.
=83	=83	=83
8A/ 8d/ 8f#/L	(16dd\LL	4.r
.	16a\	.
8A/ 8d/ 8f#/	16dd\	.
.	16ff#\	.
8A/ 8e/ 8g/J	16aa\	.
.	16cc#\JJ	.
=84	=84	=84
4d/ 4f#/	4dd\)	4.r;
8r;	8r;	.
==	==	==
*-	*-	*-
!!!ENC: Craig Stuart Sapp
!!!END: 2004/05/27/
!!!EFL: 113/651
